X:1
T:Day By Day
T:Day By Day
T:Oscar Ahnfelt, arr. James Whittemore
T:Carolina Sandell Berg
T:James Whittemore
T:James Whittemore
T:James Whittemore
C:Oscar Ahnfelt, arr. James Whittemore
Z:Carolina Sandell Berg
Z:James Whittemore
%%score 1 2 3
L:1/8
Q:1/4=84
M:4/4
K:C
V:1 treble nm="Violin" snm="Vln."
V:2 alto nm="Viola" snm="Vla."
V:3 bass nm="Violoncello" snm="Vc."
V:1
"^Sweetly" z2 | z4 z2!mf! uG2- | G2 F4 z2 | z4 z2 G2- | G2 !fermata!F4!mp! (uED) | vC3 C CC(vDE) | %6
 uE2 vD4 (uDC) | vB,3 B, (vB,C)(uDB,) | !breath!vC6 (uED) | C3 C CC(DE) | E2 D4 (DC) | %11
 B,3 B, (B,C)(DB,) | !breath!C6 (uCD) | E3 E E2 (EG) | (G2 F4) (FE) | D4- D(FED) | %16
 !breath!C6 (uED) | C3 C CC(DE) | E2 D4 (DC) | B,3 B, (B,C)(DB,) |[K:Ab] C4- C z z2 |!mf! vC6 E2- | %22
 E2 D6 | vB,4 D4 | C6 z2 | vE4 _G4 | F8 | vD4 _F4 | E6 z2 | z2 uc6- | c4 B2 z2 | z2 uB6 | %32
 !breath!E6 uE2 | C3 C CC(DE) | uF2 (vF2 D2) D2 | E3 E B,2 B,2 | A,8 || %37
[K:E] z4!f!"^Passionately!" vG2 F2 |!mf! G2 G2 G2 B2 | B2 A2 A2 A2 | F2 F2 G2 A2 | %41
 A2 F2 !breath!G2 uB2 | G2 G2 G2 B2 | d2 (cd) e2 A2 | c2 B2 B2 A2 | (A2 !breath!G4)!mf! ue2 | %46
 e3 e eeee | ve2 e2 f2 (cB) | B3 c (de)(ed) | !breath!e6!mf! (uGA) | B3 A GG(AB) | uB2 vA4 (DE) | %52
 F3 F (FE)(DF) | E8 | z4!mp! vG2 F2 | E3 E EE(FG) | G2 !breath!F4 (uFE) |"_rit." D3 D (DE)(FD) | %58
 !fermata!E8 |] %59
V:2
"^Sweetly" z2 | z2!mf! uE6- | E2 D4 z2 | z2 E4 D2 | C4 !fermata!B,2 z2 | z8 | z8 | z8 | z8 | z8 | %10
 z8 | z8 | z4 z2 uC2 | C3 C C2 C2 | (C4 D2) (A,G,) | G,3 A, (B,C)(ED) | C4- C z z2 | z8 | z8 | z8 | %20
[K:Ab] z4 z2!mf! (uCB,) | vA,3 A, A,A,(vB,C) | uC2 vB,4 (uB,A,) | vG,3 G, (vG,A,)(uB,G,) | %24
 !breath!vA,6 (uCB,) | A,3 A, A,A,(B,C) | C2 B,4 (B,A,) | G,3 G, (G,A,)(B,G,) | !breath!A,6 (uCD) | %29
 E3 E EE(AG) | G2 F4 (B,C) | D3 D (DF)(ED) | !breath!C6 (uCB,) | A,3 A, A,A,(B,C) | %34
 uC2 vB,4 (B,A,) | G,3 G, (G,A,)(B,G,) | A,8 ||[K:E] z4!f!"^Passionately!" vG,2 A,2 | %38
!mf! B,2 B,2 C2 D2 | E2 E2 D2 C2 | B,2 A,2 B,2 =C2 | (=C4 !breath!B,2) uE2 | B,2 C2 D2 (DE) | %43
 (FG) A2 c2 E2 | F2 G2 F2 B,2 | !breath!B,6!f! (uEF) | G3 G GG(vGB) | uB2 vA4 (AG) | %48
 F3 F (FA)(GB) | !breath!B6!mf! (uEF) | G3 F EE(DE) | (uFEDE) vC2 A,2 | B,3 B, A,2 B,2 | B,8 | %54
 z4!mp! vG2 F2 | E3 E EE(FG) | G2 !breath!F4 (uFE) |"_rit." D3 D (DE)(FD) | !fermata!E8 |] %59
V:3
!mf!"^Sweetly" (uE,D,) | C,4 B,,4 | !breath!A,,6 (E,D,) | (C,4 B,,4) | A,,4 !fermata!G,,2 z2 | z8 | %6
 z8 | z8 | z4 z2!mp! (uG,F,) | vE,3 E, E,E,(vF,G,) | uG,2 vF,4 (uF,E,) | vD,3 D, (vD,E,)(uF,D,) | %12
 !breath!vE,6 (uE,F,) | G,3 G, G,G,(CB,) | B,2 A,4 (D,E,) | F,3 F, (F,A,)(G,F,) | E,4- E, z z2 | %17
 z8 | z8 | z8 |[K:Ab] z8 |!mf! vE,4 _G,4 | F,8 | (vD,4 _F,4) | E,6 z2 | vC,4 E,4 | D,8 | %27
 vB,,4 D,4 | C,6 z2 | z2 (uA,,2 G,2 E,2) | D,6 z2 | z2 (uG,,2 F,2 G,2) | (B,2 !breath!A,4) uA,2 | %33
 G,3 G, F,F,(F,G,) | uA,2 (vD,2 F,2) B,,2 | (D,2 C,)B,, (E,F,) G,2 | A,8 || %37
[K:E] z4!f!"^Passionately!" vG,2 F,2 | E,3 E, E,E,(F,G,) | G,2 F,4 (F,E,) | D,3 D, (D,E,)(F,D,) | %41
 !breath!E,6 (uG,F,) | E,3 E, E,E,(F,G,) | G,2 F,4 (F,E,) | D,3 D, (D,E,)(F,D,) | %45
 !breath!E,6!f! (uG,A,) | B,3 B, B,B,(vED) | uD2 vC4 (F,G,) | A,3 A, (A,C)(B,A,) | %49
 !breath!G,6!mf! (uG,F,) | E,3 E, E,E,(F,G,) | uG,2 vF,4 (F,E,) | D,3 D, (D,E,)(F,D,) | E,8 | %54
 z4!mp! vG,2 F,2 | E,3 E, E,E,(F,G,) | G,2 !breath!F,4 (uF,E,) |"_rit." D,3 D, (D,E,)(F,D,) | %58
 !fermata!E,8 |] %59

